packages/kaspersky-hexa-ui-icons/src/iconsSVGs/16/DeviceGamepadSolid.svg

<svg width="16" height="16" viewBox="0 0 16 16" fill="none" xmlns="http://www.w3.org/2000/svg">
<path fill-rule="evenodd" clip-rule="evenodd" d="M4.19122 2.43604C2.36404 2.43604 0.882812 3.91726 0.882812 5.74444V10.4793C0.882812 12.1828 2.26377 13.5638 3.96728 13.5638C4.84044 13.5638 5.62977 13.2001 6.19014 12.6177C6.47467 12.322 6.74261 12.0564 7.02273 11.862C7.29811 11.6709 7.54007 11.581 7.77063 11.581H7.895C8.12556 11.581 8.36752 11.6709 8.64289 11.862C8.92301 12.0564 9.19095 12.322 9.47549 12.6177C10.0359 13.2001 10.8252 13.5638 11.6983 13.5638C13.4019 13.5638 14.7828 12.1828 14.7828 10.4793V5.74444C14.7828 3.91726 13.3016 2.43604 11.4744 2.43604H4.19122ZM11.9735 6.00456C11.9735 6.39346 11.6583 6.70873 11.2694 6.70873C10.8805 6.70873 10.5652 6.39346 10.5652 6.00456C10.5652 5.61565 10.8805 5.30038 11.2694 5.30038C11.6583 5.30038 11.9735 5.61565 11.9735 6.00456ZM5.67392 6.20859C5.67392 5.84961 5.38291 5.55859 5.02392 5.55859C4.66494 5.55859 4.37392 5.84961 4.37392 6.20859V6.65286H3.92954C3.57056 6.65286 3.27954 6.94388 3.27954 7.30286C3.27954 7.66185 3.57056 7.95286 3.92954 7.95286H4.37392V8.39721C4.37392 8.7562 4.66494 9.04721 5.02392 9.04721C5.38291 9.04721 5.67392 8.7562 5.67392 8.39721V7.95286H6.11816C6.47714 7.95286 6.76816 7.66185 6.76816 7.30286C6.76816 6.94388 6.47715 6.65286 6.11816 6.65286H5.67392V6.20859ZM10.5651 8.1063C10.5651 8.49521 10.2498 8.81048 9.86091 8.81048C9.47201 8.81048 9.15674 8.49521 9.15674 8.1063C9.15674 7.7174 9.47201 7.40213 9.86091 7.40213C10.2498 7.40213 10.5651 7.7174 10.5651 8.1063Z" fill="black"/>
</svg>

<svg xmlns="http://www.w3.org/2000/svg" width="16" height="16" fill="none" viewBox="0 0 16 16"><path fill="#000" fill-rule="evenodd" d="M4.1912 2.436C2.364 2.436.8828 3.9173.8828 5.7444v4.7349c0 1.7035 1.381 3.0845 3.0845 3.0845.8731 0 1.6625-.3637 2.2228-.9461.2846-.2957.5525-.5613.8326-.7557.2754-.1911.5174-.281.748-.281h.1243c.2306 0 .4725.0899.7479.281.2801.1944.548.46.8326.7557.5604.5824 1.3497.9461 2.2228.9461 1.7036 0 3.0845-1.381 3.0845-3.0845V5.7444c0-1.8271-1.4812-3.3084-3.3084-3.3084zm7.7823 3.5686a.7041.7041 0 1 1-1.4083 0 .7042.7042 0 0 1 1.4083 0m-6.2996.204a.65.65 0 0 0-1.3 0v.4443h-.4444a.65.65 0 0 0 0 1.3h.4444v.4443a.65.65 0 0 0 1.3 0V7.953h.4443a.65.65 0 0 0 0-1.3h-.4443zm4.8912 1.8977a.7042.7042 0 1 1-1.4084 0 .7042.7042 0 0 1 1.4084 0"/></svg>
